X: 276
T:Major L. Stewart's Reel -- of the Island of Java
B:William Marshall's Scottish Airs, Melodies, Strathspeys, Reels &c (1822)
C:William Marshall
L:1/8
M:C
O:Scotland
R:Reel
Z:Clark Bernst + Richard Robinson
%%Page:42 - 2
F:http://richardrobinson.tunebook.org.uk/tune/4119
%%TBL:{"version":1,"type":"tune","id":"4119"}
K:G
%%staves {1 2}
V:1
G2 g2 (a/g/f) g2 | dgBg dgBg | G2 g2 (a/g/f) g2 | (fa) (AB) cBcA | 
G2 g2 (a/g/f) g2 | dg Bg dgBg | G2 g2 (a/g/f) g2 | (fg/a/) (AB) cdef |]
gbeg dg B2 | (gb)eg fgaf | gbeg dg B2 | (AB)cd edef |
gbeg dg B2 | (gb)eg fgaf | gbfa egdg | caBg ABcA |]
V:2 middle=d clef=bass
L:1/4
[Gg]ggg | GgGg | [Gg]ggg | dddd | [Gg]ggg | GgGg | [Gg]ggg | dddc |] \
Gggg | ggdd | gggg | aaaa | gggg | ggdd | gd'e'b | agdd |]

